X: 2038
Q: "Reel."
M: C
L: 1/8
K: A
c |\
(AF)EF A2AB | (A/B/c) (BA) BFFB |\
f |\
(e/f/g) ae (fe)ac |
[1 AFEF A2(Aa) | f2(ec) eAA :|\
[2 AFEF ABce | faef cAA |]


